X: 495
T: Crested Hens
B: jims roots
B: ralph
M:3/4
L:1/8
R: waltz
Q: 1/4=100
K:Edor
V:1 
|:"Em"E3 GFE|B4 Bc|"Bm"dc Be dc|dc BA GF|
"Em"E3 GFE|B4 Bc|"Bm"dc BA GA| [1 B3 GFD:| [2 B4 ef||
|:"Em"gB Bg gB|"C"=c4 ef|"Am"gf ag fe|"B"^d2 e2 f2|
"Em"gB Bg gB|"C"=c4 ef|"Am"gf ag "Bm"fd| [1"CM7"e4 ef:|[2 "Am"e3 GFD||
% abcbook-tune_id 6298c245be6e165a4887df7c


% abcbook-boost 0
% abcbook-tablature 
% abcbook-transpose 
% abcbook-lastupdated 1665482893914
% abcbook-soundfonts 
% abcbook-repeats 1


